T: Going To Donnybrook
M: 6/8
L: 1/8
K: Gmaj
DGG BGG | AGG GBd | efg dBG | AGG BGE |DGG BGG | AGG GBd | efg dBG | AGA G2 :|gfg efg | edB def | gfg eag | fdd d2 f |gfg efg | edB def |[1 gfe dBA | BGG G2 :|[2 gba gfe | dBA BG ||
